img/header-icon-1.svg

<svg width="321" height="750" viewBox="0 0 321 750" fill="none" xmlns="http://www.w3.org/2000/svg">
<g opacity="0.08">
<path d="M294.44 682.827C285.76 646.228 258.286 572.192 198.144 530.684C138.001 489.177 89.5582 494.298 81.7571 504.445C73.956 514.591 84.9613 583.987 144.992 627.663C210.477 675.299 294.44 682.827 294.44 682.827Z" stroke="#7D869D" stroke-width="10" stroke-miterlimit="10" stroke-linecap="round"/>
<path d="M283.658 674.563C250.203 641.24 41.3931 468.133 14.7682 453.869" stroke="#7D869D" stroke-width="10" stroke-miterlimit="10" stroke-linecap="round"/>
<path d="M270.361 632.949L240.213 635.703L240.307 667.544" stroke="#7D869D" stroke-width="10" stroke-miterlimit="10" stroke-linecap="round"/>
<path d="M258.254 602.01L207.902 606.915L208.874 658.699" stroke="#7D869D" stroke-width="10" stroke-miterlimit="10" stroke-linecap="round"/>
<path d="M232.842 568.823L175.831 581.258L174.028 637.778" stroke="#7D869D" stroke-width="10" stroke-miterlimit="10" stroke-linecap="round"/>
<path d="M205.584 539.261L146.895 553.549L142.128 622.369" stroke="#7D869D" stroke-width="10" stroke-miterlimit="10" stroke-linecap="round"/>
<path d="M173.025 519.565L117.451 530.98L111.834 590.106" stroke="#7D869D" stroke-width="10" stroke-miterlimit="10" stroke-linecap="round"/>
<path d="M122.189 501.616L92.348 511.743L86.797 540.73" stroke="#7D869D" stroke-width="10" stroke-miterlimit="10" stroke-linecap="round"/>
</g>
<g opacity="0.08">
<path d="M47.1174 168.205C64.2336 173.621 101.103 176.725 123.396 150.984C113.009 174.467 121.89 186.974 121.89 186.974C121.89 186.974 138.445 156.474 159.585 146.059C163.831 155.83 159.113 169.413 152.062 174.811C195.361 174.272 212.604 106.281 200.138 85.2193C187.672 64.1574 147.42 46.091 123.031 58.2666C98.6425 70.4421 85.3178 67.1706 85.3178 67.1706C85.3178 67.1706 92.1337 79.7483 114.237 79.8342C86.6028 81.1721 72.0082 95.9117 69.9964 103.827C86.4898 96.4555 103.587 103.639 102.232 104.194C55.3495 123.317 47.1174 168.205 47.1174 168.205Z" stroke="#7D869D" stroke-width="10" stroke-miterlimit="10" stroke-linecap="round"/>
<path d="M112.397 130.698C126.857 124.432 198.175 88.3799 224.422 69.9461" stroke="#7D869D" stroke-width="10" stroke-miterlimit="10" stroke-linecap="round"/>
<path d="M145.083 114.794C140.499 121.84 137.816 131.091 137.58 136.468" stroke="#7D869D" stroke-width="10" stroke-miterlimit="10" stroke-linecap="round"/>
<path d="M147.893 113.269C146.064 113.78 131.216 106.317 123.068 109.692" stroke="#7D869D" stroke-width="10" stroke-miterlimit="10" stroke-linecap="round"/>
<path d="M180.064 121.827C182.516 114.723 183.216 104.384 179.102 96.7949C177.272 93.4195 168.999 86.8779 160.494 85.7203" stroke="#7D869D" stroke-width="10" stroke-miterlimit="10" stroke-linecap="round"/>
</g>
</svg>

<svg width="321" height="750" fill="none" xmlns="http://www.w3.org/2000/svg"><g opacity=".08" stroke="#7D869D" stroke-width="10" stroke-miterlimit="10" stroke-linecap="round"><path d="M294.44 682.827c-8.68-36.599-36.154-110.635-96.296-152.143-60.143-41.507-108.586-36.386-116.387-26.239-7.801 10.146 3.204 79.542 63.235 123.218 65.485 47.636 149.448 55.164 149.448 55.164zm-10.782-8.264c-33.455-33.323-242.265-206.43-268.89-220.694"/><path d="M270.361 632.949l-30.148 2.754.094 31.841m17.947-65.534l-50.352 4.905.972 51.784m23.968-89.876l-57.011 12.435-1.803 56.52m31.556-98.517l-58.689 14.288-4.767 68.82m30.897-102.804l-55.574 11.415-5.617 59.126m10.355-88.49l-29.841 10.127-5.551 28.987"/></g><g opacity=".08" stroke="#7D869D" stroke-width="10" stroke-miterlimit="10" stroke-linecap="round"><path d="M47.117 168.205c17.117 5.416 53.986 8.52 76.279-17.221-10.387 23.483-1.506 35.99-1.506 35.99s16.555-30.5 37.695-40.915c4.246 9.771-.472 23.354-7.523 28.752 43.299-.539 60.542-68.53 48.076-89.592-12.466-21.062-52.718-39.128-77.107-26.952-24.389 12.175-37.713 8.904-37.713 8.904s6.816 12.577 28.919 12.663c-27.634 1.338-42.229 16.078-44.24 23.993 16.493-7.371 33.59-.188 32.235.367-46.883 19.123-55.115 64.011-55.115 64.011zm65.28-37.507c14.46-6.266 85.778-42.318 112.025-60.752m-79.339 44.848c-4.584 7.046-7.267 16.297-7.503 21.674m10.313-23.199c-1.829.511-16.677-6.952-24.825-3.577"/><path d="M180.064 121.827c2.452-7.104 3.152-17.443-.962-25.032-1.83-3.376-10.103-9.917-18.608-11.075"/></g></svg>
